data/playwrite-ro.svg

<svg width="105.8" height="27.048" viewBox="0 0 105.8 27.048" xmlns="http://www.w3.org/2000/svg"><path transform="translate(0 19.992) scale(.014 -.014)" d="m503 380q-17-1-22 11t-1 28 13.5 27 26.5 11q66 1 129 13.5t118.5 37 98.5 60 67 83.5 24 108q0 44-19 77t-55 54.5-86 32.5-113 11q-81 0-153-16.5t-132-47.5-106-74q-15-15-30.5-8t-24.5 20q-8 12-7 25t13 24q39 37 86.5 66.5t104 49.5 121 31 134.5 11q91 0 159-18.5t112-52.5 66-80.5 22-103.5q0-76-30-135.5t-82.5-104-122-75-149-46.5-162.5-19zm-369-397q-37 0-69.5 15.5t-55 40-32.5 53.5q-7 17-2 29t20 19q17 8 28 3.5t23-20.5q13-19 28-31.5t32.5-18 36.5-5.5q40 0 67 31t53 112l192 601q5 14 17.5 20.5t34.5 6.5q23 0 33.5-6.5t4.5-23.5l-189-590q-25-77-55.5-130t-70.5-79.5-96-26.5z"/><path transform="translate(12.908 19.992) scale(.014 -.014)" d="m-135-17q-19 0-25 11.5t-2.5 26 16 26 30.5 11.5q34 0 75.5 20t86.5 55.5 91 82.5 91 103 86 116 76 121 60.5 119 40 110 14.5 92q0 15 13 22.5t30.5 7.5 31-7.5 13.5-22.5q0-43-16-98.5t-45.5-118.5-70-129.5-88-133-100-127.5-106-113-107-91-103-61-92.5-22zm315 0q-44 0-67 15.5t-30.5 42-3 59.5 15.5 68l226 700q26 80 66 115.5t96 35.5q34 0 59-17.5t38-49 13-75.5q0-19-13.5-28t-31-9-30.5 9-13 28-4.5 31.5-12.5 19-21 6.5q-10 0-20.5-7.5t-21-23.5-19.5-44l-237-740q-4-11-6-25.5t3-25 23-10.5q15 0 27.5 7.5t22 18.5 15.5 20q5 8 16 12t28-7q17-10 16.5-21t-5.5-22q-10-18-28.5-37.5t-43.5-32.5-57-13z"/><path transform="translate(18.424 19.992) scale(.014 -.014)" d="m190-17q-46 0-78.5 20t-50 58-17.5 90q0 44 12 94t36.5 98.5 62.5 88.5 90 63.5 119 23.5q35 0 67-11t59-29l1 4q7 20 16.5 26t28.5 6q32 0 40-9.5t2-29.5l-117-357q-3-11-5.5-25.5t2.5-25 23-10.5q15 0 27.5 7.5t22 18.5 15.5 20q6 8 17 12t27-7q17-10 17-21t-6-22q-10-18-28-37.5t-43-32.5-57-13q-28 0-47.5 6.5t-31.5 18.5-18 28-6 35q0 3 0 5.5t0 4.5q-32-40-65-61.5t-62.5-29-52.5-7.5zm-56 177q0-32 9.5-53.5t28.5-32.5 47-11q33 0 64.5 17.5t61.5 50.5 56 78l68 205q-26 15-49.5 20.5t-49.5 5.5q-53 0-92.5-19t-67-50.5-44.5-69-24.5-74.5-7.5-67z"/><path transform="translate(27.132 19.992) scale(.014 -.014)" d="m421-19q18 11 37 21t37.5 19 35.5 16.5 31 13.5q15 6 23.5-2t11-21.5-1-27-15.5-18.5q-20-9-41-19.5t-42.5-21-42.5-22.5-42-23zm-288-500q-62 0-98 34.5t-36 87.5q0 47 19.5 87t55.5 76.5 84.5 70 106.5 65.5q17 8 33 17t32.5 18 32.5 17l37 114q-20-20-42-36.5t-45-27-46.5-16-46.5-5.5q-56 0-89.5 24.5t-42.5 69 10 103.5l66 211q8 24 1.5 36.5t-24.5 12.5q-16 0-29.5-9t-27-27.5-29.5-48.5q-7-12-14.5-18.5t-27.5-5.5q-20 2-26 15t1 30q16 39 40 70.5t54.5 50 65.5 18.5q32 0 54.5-11t35-31.5 13.5-49.5-10-64l-55-179q-13-42-10.5-68.5t21-38.5 54.5-12q24 0 49.5 10t51.5 29 49.5 45.5 42.5 59.5l90 278q7 20 16.5 26t28.5 6q31 0 39.5-9.5t1.5-29.5l-237-728q-24-73-49.5-124t-56-82.5-66-46-78.5-14.5zm13 77q30 0 58.5 22t52.5 65 41 105l34 106q-10-5-18.5-10t-16.5-9-16-9q-44-26-79.5-52t-61.5-52-39.5-52.5-13.5-55.5q0-20 7.5-32.5t21-19 30.5-6.5z"/><path transform="translate(36.442 19.992) scale(.014 -.014)" d="m224-19q-55 0-85.5 19t-41 50-7 68.5 15.5 74.5l64 198q8 24 1.5 36.5t-23.5 12.5q-18 0-33.5-9t-30-27.5-30.5-48.5q-7-12-14.5-18.5t-28.5-5.5q-19 2-25.5 15t0.5 30q17 39 42 70.5t57 50 69 18.5q32 0 55-11t35.5-31.5 14-49.5-10.5-64l-53-159q-6-19-11.5-43t-4.5-46.5 14.5-36.5 44.5-14q29 0 54 14.5t44.5 38.5 34 52.5 22.5 55.5l3-102q-10-28-28-53t-41-44-49-30-54-11zm309 0q-51 0-86 16t-54 45.5-21.5 68 12.5 83.5l92 289q7 20 16.5 26t28.5 6q32 0 40-9.5t2-29.5l-89-276q-8-24-11.5-48.5t1.5-45 23-33 54-12.5 67.5 16 58 44.5 46.5 65 34 78 21.5 84 7.5 81.5q0 20-4.5 30.5t-10.5 14-13 3.5q-15 0-24.5-13.5t-9.5-30.5q0-15 9-25t26-14.5 40-4.5q48 0 93 14t82 34q11 6 21-0.5t16.5-19 6-24-9.5-16.5q-45-22-97.5-38t-117.5-16q-46 0-75.5 14t-44 37-14.5 50 10.5 52.5 34.5 42 64 16.5q26 0 47.5-12t34.5-37.5 13-66.5q0-47-8.5-97.5t-26.5-100-44-93-62-77-80.5-52.5-98.5-19z"/><path transform="translate(48.874 19.992) scale(.014 -.014)" d="m-137-17q-19 0-25 11.5t-2 26 16.5 26 31.5 11.5q27 0 54 16t54.5 47 55 77 55 107 53.5 136l58-25q-43-122-83.5-205t-81.5-133.5-86.5-72.5-99.5-22zm555 0q-38 0-61 11.5t-33 32-9 47 10 56.5q8 26 21.5 57t28.5 64.5 29 66.5 22 63q8 29-1 38.5t-25 9.5q-23 0-53.5-6t-63-13.5-60.5-13.5-45-6q-36 0-64.5 12.5t-44.5 36.5-16 57q0 48 27.5 77.5t72.5 29.5q36 0 56-19t24.5-49.5-7.5-65.5q9 0 32 6.5t53.5 15.5 62.5 15.5 57 6.5q29 0 51.5-13t31.5-44-5-85q-8-28-21.5-60.5t-29.5-67-30.5-68.5-24.5-67q-7-25-1.5-37.5t24.5-12.5q15 0 27.5 7.5t22 18.5 15.5 20q6 8 17 12t27-7q17-10 17-21t-6-22q-10-18-28-37.5t-43-32.5-57-13zm-254 473q8 24 8.5 44t-6 32-21.5 12q-14 0-22-11t-8-30q0-20 13.5-33.5t35.5-13.5z"/><path transform="translate(56.826 19.992) scale(.014 -.014)" d="m150-17q-67 0-91 44.5t1 122.5l108 333q6 20 15.5 26t29.5 6q31 0 39.5-9.5t1.5-29.5l-114-352q-10-32-5-49t25-17q15 0 28 7.5t22.5 18.5 15.5 20q6 8 17 12t27-7q17-10 17-21t-6-22q-10-18-29-37.5t-44.5-32.5-57.5-13zm125 686q-20 0-34.5 13t-14.5 38q0 27 18 51t55 24q20 0 34.5-12.5t14.5-38.5q0-27-17.5-51t-55.5-24z"/><path transform="translate(61.026 19.992) scale(.014 -.014)" d="m171-17q-58 0-80.5 27.5t-19.5 71.5 19 96l78 242h-79q-11 0-15 10t1 30q6 20 15.5 30t20.5 10h83l64 198q6 20 15.5 26t29.5 6q31 0 39.5-9.5t1.5-29.5l-61-191h126q11 0 15-9.5t-1-30.5q-6-19-16-29.5t-21-10.5h-128l-94-290q-11-35-5-53.5t27-18.5q33 0 56 21t36 37q6 8 16.5 12t26.5-7q17-10 17.5-20.5t-5.5-21.5q-13-21-34.5-43.5t-52.5-37.5-75-15z"/><path transform="translate(66.458 19.992) scale(.014 -.014)" d="m254-19q-34 0-65.5 12t-57.5 34-45.5 52.5-30 68.5-10.5 82q0 39 9.5 79.5t28.5 78 47 67 65.5 47 83.5 17.5q43 0 71-16.5t42-44 14-62.5q0-61-27-115t-70.5-99.5-92.5-79.5q-53-36-112.5-63t-119.5-41.5-114-14.5q-14 0-20 11.5t-3 26 14.5 26 32.5 11.5q48 0 98 14t97 39 87 56q33 25 65 59t53.5 73 21.5 80q0 30-13 45t-42 15q-31 0-54.5-20.5t-39.5-52-24.5-66.5-8.5-65q0-40 11-72t30.5-55 43.5-35 50-12q24 0 46.5 8.5t44.5 23.5 43 32q14 12 26.5 10.5t23.5-12.5q14-13 16-27t-11-26q-32-30-65-50t-67.5-29.5-71.5-9.5z"/><path transform="translate(76.874 19.992) scale(.014 -.014)" d="m816-19q-24 0-46 7t-42 22-38 39-34 58.5-30 80.5q-6 23-12.5 44t-11.5 41-10.5 40-10 39-9 38.5-8.5 38.5q-28 3-45.5 20t-17.5 39q0 24 16 41t47 17q23 0 39.5-10t29.5-26q63 10 118.5 32.5t97.5 57 66 79 24 99.5q0 39-18 68t-51 48.5-80 29.5-106 10q-81 0-153-16.5t-132-47.5-106-74q-15-15-30.5-8t-24.5 20-7.5 25 13.5 24q39 37 86.5 66.5t104 49.5 121 31 134.5 11q88 0 152-17.5t106-49 62.5-74.5 20.5-95q0-56-19.5-104t-54-87-82.5-69-106-50.5-122-32.5q3-17 7-32t8-30.5 8-31 8.5-31.5 9.5-33 10-36q14-45 26.5-76.5t25.5-52 25-31.5 25-15.5 25-4.5q31 0 61 24t67 69q12 16 25.5 15.5t28.5-13.5q11-10 12.5-22t-8.5-29q-21-35-52-63.5t-67.5-45-75.5-16.5zm-682 2q-37 0-69.5 15.5t-55 40-32.5 53.5q-7 17-2 29t20 19q17 8 28 3.5t23-20.5q13-19 28-31.5t32.5-18 36.5-5.5q40 0 67 31t53 112l192 601q5 14 17.5 20.5t34.5 6.5q23 0 33.5-6.5t4.5-23.5l-189-590q-25-77-55.5-130t-70.5-79.5-96-26.5z"/><path transform="translate(91.364 19.992) scale(.014 -.014)" d="m475-19q-83 0-147 25.5t-106 73.5-64 115.5-22 150.5q0 68 14 138t40 137.5 63.5 128.5 85 111.5 104.5 85.5q28 17 41.5 14.5t23.5-17.5q13-19 9-32.5t-29-30.5q-50-33-91-78.5t-72.5-99.5-53-112.5-32.5-120-11-121.5q0-64 16-116.5t48-89.5 80.5-57 112.5-20q65 0 125.5 24t114.5 67.5 98.5 101.5 76.5 127 50 144 18 152q0 67-12 114.5t-35.5 78-56.5 44.5-75 14q-35 0-65.5-11.5t-57.5-33-53-52-51-70.5q-12-16-27-19t-32 8q-16 9-15.5 24.5t9.5 31.5q34 51 70 89.5t75.5 64 82 38 87.5 12.5q61 0 107.5-21.5t78-64 47.5-104.5 16-143q0-91-21.5-178.5t-60.5-166-92.5-143.5-119-112.5-139.5-74-153-26.5z"/></svg>

<?xml version="1.0" encoding="utf-8" ?>
<svg baseProfile="tiny" height="100%" version="1.2" width="100%" xmlns="http://www.w3.org/2000/svg" xmlns:ev="http://www.w3.org/2001/xml-events" xmlns:xlink="http://www.w3.org/1999/xlink"><defs /><g><path d="M503 380Q486 379 481.0 391.0Q476 403 480 419Q484 435 493.5 446.0Q503 457 520 457Q586 458 649.0 470.5Q712 483 767.5 507.5Q823 532 866.0 567.5Q909 603 933.0 651.0Q957 699 957 759Q957 803 938.0 836.0Q919 869 883.0 890.5Q847 912 797.0 923.0Q747 934 684 934Q603 934 531.0 917.5Q459 901 399.0 870.0Q339 839 293 796Q278 781 262.5 788.0Q247 795 238 808Q230 820 231.0 833.0Q232 846 244 857Q283 894 330.5 923.5Q378 953 434.5 973.0Q491 993 555.5 1004.0Q620 1015 690 1015Q781 1015 849.0 996.5Q917 978 961.0 944.0Q1005 910 1027.0 863.5Q1049 817 1049 760Q1049 684 1019.0 624.5Q989 565 936.5 520.5Q884 476 814.5 445.5Q745 415 665.5 399.0Q586 383 503 380ZM134 -17Q97 -17 64.5 -1.5Q32 14 9.5 38.5Q-13 63 -23 92Q-30 109 -25.0 121.0Q-20 133 -5 140Q12 148 23.0 143.5Q34 139 46 123Q59 104 74.0 91.5Q89 79 106.5 73.5Q124 68 143 68Q183 68 210.0 99.0Q237 130 263 211L455 812Q460 826 472.5 832.5Q485 839 507 839Q530 839 540.5 832.5Q551 826 545 809L356 219Q331 142 300.5 89.0Q270 36 230.0 9.5Q190 -17 134 -17Z" transform="translate(0.0, 72) scale(0.072, -0.072)" /><path d="M-135 -17Q-154 -17 -160.0 -5.5Q-166 6 -162.5 20.5Q-159 35 -146.5 46.5Q-134 58 -116 58Q-82 58 -40.5 78.0Q1 98 46.0 133.5Q91 169 137.0 216.0Q183 263 228.0 319.0Q273 375 314.0 435.0Q355 495 390.0 556.0Q425 617 450.5 675.0Q476 733 490.5 785.0Q505 837 505 877Q505 892 518.0 899.5Q531 907 548.5 907.0Q566 907 579.5 899.5Q593 892 593 877Q593 834 577.0 778.5Q561 723 531.5 660.0Q502 597 461.5 530.5Q421 464 373.5 397.5Q326 331 273.5 270.0Q221 209 167.5 157.0Q114 105 60.5 66.0Q7 27 -42.5 5.0Q-92 -17 -135 -17ZM180 -17Q136 -17 113.0 -1.5Q90 14 82.5 40.5Q75 67 79.5 100.0Q84 133 95 168L321 868Q347 948 387.0 983.5Q427 1019 483 1019Q517 1019 542.0 1001.5Q567 984 580.0 952.5Q593 921 593 877Q593 858 579.5 849.0Q566 840 548.5 840.0Q531 840 518.0 849.0Q505 858 505 877Q505 896 500.5 908.5Q496 921 488.0 927.5Q480 934 467 934Q457 934 446.5 926.5Q436 919 425.5 903.0Q415 887 406 859L169 119Q165 108 163.0 93.5Q161 79 166.0 68.5Q171 58 189 58Q204 58 216.5 65.5Q229 73 238.5 84.0Q248 95 254 104Q259 112 270.0 116.0Q281 120 298 109Q315 99 314.5 88.0Q314 77 309 66Q299 48 280.5 28.5Q262 9 237.0 -4.0Q212 -17 180 -17Z" transform="translate(66.384, 72) scale(0.072, -0.072)" /><path d="M190 -17Q144 -17 111.5 3.0Q79 23 61.5 61.0Q44 99 44 151Q44 195 56.0 245.0Q68 295 92.5 343.5Q117 392 155.0 432.0Q193 472 245.0 495.5Q297 519 364 519Q399 519 431.0 508.0Q463 497 490 479L491 483Q498 503 507.5 509.0Q517 515 536 515Q568 515 576.0 505.5Q584 496 578 476L461 119Q458 108 455.5 93.5Q453 79 458.0 68.5Q463 58 481 58Q496 58 508.5 65.5Q521 73 530.5 84.0Q540 95 546 104Q552 112 563.0 116.0Q574 120 590 109Q607 99 607.0 88.0Q607 77 601 66Q591 48 573.0 28.5Q555 9 530.0 -4.0Q505 -17 473 -17Q445 -17 425.5 -10.5Q406 -4 394.0 8.0Q382 20 376.0 36.0Q370 52 370 71Q370 74 370.0 76.5Q370 79 370 81Q338 41 305.0 19.5Q272 -2 242.5 -9.5Q213 -17 190 -17ZM134 160Q134 128 143.5 106.5Q153 85 172.0 74.0Q191 63 219 63Q252 63 283.5 80.5Q315 98 345.0 131.0Q375 164 401 209L469 414Q443 429 419.5 434.5Q396 440 370 440Q317 440 277.5 421.0Q238 402 210.5 370.5Q183 339 166.0 301.5Q149 264 141.5 227.0Q134 190 134 160Z" transform="translate(94.752, 72) scale(0.072, -0.072)" /><path d="M421 -19Q439 -8 458.0 2.0Q477 12 495.5 21.0Q514 30 531.0 37.5Q548 45 562 51Q577 57 585.5 49.0Q594 41 596.5 27.5Q599 14 595.5 0.5Q592 -13 580 -18Q560 -27 539.0 -37.5Q518 -48 496.5 -58.5Q475 -69 454.0 -81.0Q433 -93 412 -104ZM133 -519Q71 -519 35.0 -484.5Q-1 -450 -1 -397Q-1 -350 18.5 -310.0Q38 -270 74.0 -233.5Q110 -197 158.5 -163.5Q207 -130 265 -98Q282 -90 298.0 -81.0Q314 -72 330.5 -63.0Q347 -54 363 -46L400 68Q380 48 358.0 31.5Q336 15 313.0 4.5Q290 -6 266.5 -11.5Q243 -17 220 -17Q164 -17 130.5 7.5Q97 32 88.0 76.5Q79 121 98 180L164 391Q172 415 165.5 427.5Q159 440 141 440Q125 440 111.5 431.0Q98 422 84.5 403.5Q71 385 55 355Q48 343 40.5 336.5Q33 330 13 331Q-7 333 -13.0 346.0Q-19 359 -12 376Q4 415 28.0 446.5Q52 478 82.5 496.5Q113 515 148 515Q180 515 202.5 504.0Q225 493 237.5 472.5Q250 452 251.0 423.0Q252 394 241 359L186 180Q173 138 175.5 111.5Q178 85 196.5 73.0Q215 61 251 61Q275 61 300.5 71.0Q326 81 352.0 100.0Q378 119 401.5 145.5Q425 172 444 205L534 483Q541 503 550.5 509.0Q560 515 579 515Q610 515 618.5 505.5Q627 496 620 476L383 -252Q359 -325 333.5 -376.0Q308 -427 277.5 -458.5Q247 -490 211.5 -504.5Q176 -519 133 -519ZM146 -442Q176 -442 204.5 -420.0Q233 -398 257.0 -355.0Q281 -312 298 -250L332 -144Q322 -149 313.5 -154.0Q305 -159 297.0 -163.0Q289 -167 281 -172Q237 -198 201.5 -224.0Q166 -250 140.0 -276.0Q114 -302 100.5 -328.5Q87 -355 87 -384Q87 -404 94.5 -416.5Q102 -429 115.5 -435.5Q129 -442 146 -442Z" transform="translate(139.536, 72) scale(0.072, -0.072)" /><path d="M224 -19Q169 -19 138.5 0.0Q108 19 97.5 50.0Q87 81 90.5 118.5Q94 156 106 193L170 391Q178 415 171.5 427.5Q165 440 148 440Q130 440 114.5 431.0Q99 422 84.5 403.5Q70 385 54 355Q47 343 39.5 336.5Q32 330 11 331Q-8 333 -14.5 346.0Q-21 359 -14 376Q3 415 28.0 446.5Q53 478 85.0 496.5Q117 515 154 515Q186 515 209.0 504.0Q232 493 244.5 472.5Q257 452 258.5 423.0Q260 394 248 359L195 200Q189 181 183.5 157.0Q178 133 179.0 110.5Q180 88 193.5 74.0Q207 60 238 60Q267 60 292.0 74.5Q317 89 336.5 113.0Q356 137 370.5 165.5Q385 194 393 221L396 119Q386 91 368.0 66.0Q350 41 327.0 22.0Q304 3 278.0 -8.0Q252 -19 224 -19ZM533 -19Q482 -19 447.0 -3.0Q412 13 393.0 42.5Q374 72 371.5 110.5Q369 149 384 194L476 483Q483 503 492.5 509.0Q502 515 521 515Q553 515 561.0 505.5Q569 496 563 476L474 200Q466 176 462.5 151.5Q459 127 464.0 106.5Q469 86 487.0 73.5Q505 61 541 61Q577 61 608.5 77.0Q640 93 666.5 121.5Q693 150 713.0 186.5Q733 223 747.0 264.5Q761 306 768.5 348.5Q776 391 776 430Q776 450 771.5 460.5Q767 471 761.0 474.5Q755 478 748 478Q733 478 723.5 464.5Q714 451 714 434Q714 419 723.0 409.0Q732 399 749.0 394.5Q766 390 789 390Q837 390 882.0 404.0Q927 418 964 438Q975 444 985.0 437.5Q995 431 1001.5 418.5Q1008 406 1007.5 394.5Q1007 383 998 378Q953 356 900.5 340.0Q848 324 783 324Q737 324 707.5 338.0Q678 352 663.5 375.0Q649 398 649 425Q649 452 659.5 477.5Q670 503 694.0 519.5Q718 536 758 536Q784 536 805.5 524.0Q827 512 840.0 486.5Q853 461 853 420Q853 373 844.5 322.5Q836 272 818.0 222.5Q800 173 774.0 129.5Q748 86 712.0 52.5Q676 19 631.5 0.0Q587 -19 533 -19Z" transform="translate(187.416, 72) scale(0.072, -0.072)" /><path d="M-137 -17Q-156 -17 -162.0 -5.5Q-168 6 -164.0 20.5Q-160 35 -147.5 46.5Q-135 58 -116 58Q-89 58 -62.0 74.0Q-35 90 -7.5 121.0Q20 152 47.5 198.0Q75 244 102.5 305.0Q130 366 156 441L214 416Q171 294 130.5 211.0Q90 128 49.0 77.5Q8 27 -37.5 5.0Q-83 -17 -137 -17ZM418 -17Q380 -17 357.0 -5.5Q334 6 324.0 26.5Q314 47 315.0 73.5Q316 100 325 130Q333 156 346.5 187.0Q360 218 375.0 251.5Q390 285 404.0 318.0Q418 351 426 381Q434 410 425.0 419.5Q416 429 400 429Q377 429 346.5 423.0Q316 417 283.5 409.5Q251 402 223.0 396.0Q195 390 178 390Q142 390 113.5 402.5Q85 415 69.0 439.0Q53 463 53 496Q53 544 80.5 573.5Q108 603 153 603Q189 603 209.0 584.0Q229 565 233.5 534.5Q238 504 226 469Q235 469 258.0 475.5Q281 482 311.5 491.0Q342 500 374.0 506.5Q406 513 431 513Q460 513 482.5 500.0Q505 487 514.0 456.0Q523 425 509 371Q501 343 487.5 310.5Q474 278 458.0 243.5Q442 209 427.5 175.0Q413 141 403 108Q396 83 401.5 70.5Q407 58 426 58Q441 58 453.5 65.5Q466 73 475.5 84.0Q485 95 491 104Q497 112 508.0 116.0Q519 120 535 109Q552 99 552.0 88.0Q552 77 546 66Q536 48 518.0 28.5Q500 9 475.0 -4.0Q450 -17 418 -17ZM164 456Q172 480 172.5 500.0Q173 520 166.5 532.0Q160 544 145 544Q131 544 123.0 533.0Q115 522 115 503Q115 483 128.5 469.5Q142 456 164 456Z" transform="translate(251.35199999999998, 72) scale(0.072, -0.072)" /><path d="M150 -17Q83 -17 59.0 27.5Q35 72 60 150L168 483Q174 503 183.5 509.0Q193 515 213 515Q244 515 252.5 505.5Q261 496 254 476L140 124Q130 92 135.0 75.0Q140 58 160 58Q175 58 188.0 65.5Q201 73 210.5 84.0Q220 95 226 104Q232 112 243.0 116.0Q254 120 270 109Q287 99 287.0 88.0Q287 77 281 66Q271 48 252.0 28.5Q233 9 207.5 -4.0Q182 -17 150 -17ZM275 669Q255 669 240.5 682.0Q226 695 226 720Q226 747 244.0 771.0Q262 795 299 795Q319 795 333.5 782.5Q348 770 348 744Q348 717 330.5 693.0Q313 669 275 669Z" transform="translate(292.248, 72) scale(0.072, -0.072)" /><path d="M171 -17Q113 -17 90.5 10.5Q68 38 71.0 82.0Q74 126 90 178L168 420H89Q78 420 74.0 430.0Q70 440 75 460Q81 480 90.5 490.0Q100 500 111 500H194L258 698Q264 718 273.5 724.0Q283 730 303 730Q334 730 342.5 720.5Q351 711 344 691L283 500H409Q420 500 424.0 490.5Q428 481 423 460Q417 441 407.0 430.5Q397 420 386 420H258L164 130Q153 95 159.0 76.5Q165 58 186 58Q219 58 242.0 79.0Q265 100 278 116Q284 124 294.5 128.0Q305 132 321 121Q338 111 338.5 100.5Q339 90 333 79Q320 58 298.5 35.5Q277 13 246.0 -2.0Q215 -17 171 -17Z" transform="translate(313.848, 72) scale(0.072, -0.072)" /><path d="M254 -19Q220 -19 188.5 -7.0Q157 5 131.0 27.0Q105 49 85.5 79.5Q66 110 55.5 148.0Q45 186 45 230Q45 269 54.5 309.5Q64 350 83.0 387.5Q102 425 130.0 454.5Q158 484 195.5 501.5Q233 519 279 519Q322 519 350.0 502.5Q378 486 392.0 458.5Q406 431 406 396Q406 335 379.0 281.0Q352 227 308.5 181.5Q265 136 216 102Q163 66 103.5 39.0Q44 12 -16.0 -2.5Q-76 -17 -130 -17Q-144 -17 -150.0 -5.5Q-156 6 -153.0 20.5Q-150 35 -138.5 46.5Q-127 58 -106 58Q-58 58 -8.0 72.0Q42 86 89.0 111.0Q136 136 176 167Q209 192 241.0 226.0Q273 260 294.5 299.0Q316 338 316 379Q316 409 303.0 424.0Q290 439 261 439Q230 439 206.5 418.5Q183 398 167.0 366.5Q151 335 142.5 300.0Q134 265 134 235Q134 195 145.0 163.0Q156 131 175.5 108.0Q195 85 219.0 73.0Q243 61 269 61Q293 61 315.5 69.5Q338 78 360.0 93.0Q382 108 403 125Q417 137 429.5 135.5Q442 134 453 123Q467 110 469.0 96.0Q471 82 458 70Q426 40 393.0 20.0Q360 0 325.5 -9.5Q291 -19 254 -19Z" transform="translate(341.784, 72) scale(0.072, -0.072)" /><path d="M816 -19Q792 -19 770.0 -12.0Q748 -5 728.0 10.0Q708 25 690.0 49.0Q672 73 656.0 107.5Q640 142 626 188Q620 211 613.5 232.0Q607 253 602.0 273.0Q597 293 591.5 313.0Q586 333 581.5 352.0Q577 371 572.5 390.5Q568 410 564 429Q536 432 518.5 449.0Q501 466 501 488Q501 512 517.0 529.0Q533 546 564 546Q587 546 603.5 536.0Q620 526 633 510Q696 520 751.5 542.5Q807 565 849.0 599.5Q891 634 915.0 678.5Q939 723 939 778Q939 817 921.0 846.0Q903 875 870.0 894.5Q837 914 790.0 924.0Q743 934 684 934Q603 934 531.0 917.5Q459 901 399.0 870.0Q339 839 293 796Q278 781 262.5 788.0Q247 795 238 808Q229 821 230.5 833.0Q232 845 244 857Q283 894 330.5 923.5Q378 953 434.5 973.0Q491 993 555.5 1004.0Q620 1015 690 1015Q778 1015 842.0 997.5Q906 980 948.0 948.5Q990 917 1010.5 874.0Q1031 831 1031 779Q1031 723 1011.5 675.0Q992 627 957.5 588.0Q923 549 875.0 519.0Q827 489 769.0 468.5Q711 448 647 436Q650 419 654.0 404.0Q658 389 662.0 373.5Q666 358 670.0 342.5Q674 327 678.5 311.0Q683 295 688.0 278.0Q693 261 698 242Q712 197 724.5 165.5Q737 134 750.0 113.5Q763 93 775.0 82.0Q787 71 800.0 66.5Q813 62 825 62Q856 62 886.0 86.0Q916 110 953 155Q965 171 978.5 170.5Q992 170 1007 157Q1018 147 1019.5 135.0Q1021 123 1011 106Q990 71 959.0 42.5Q928 14 891.5 -2.5Q855 -19 816 -19ZM134 -17Q97 -17 64.5 -1.5Q32 14 9.5 38.5Q-13 63 -23 92Q-30 109 -25.0 121.0Q-20 133 -5 140Q12 148 23.0 143.5Q34 139 46 123Q59 104 74.0 91.5Q89 79 106.5 73.5Q124 68 143 68Q183 68 210.0 99.0Q237 130 263 211L455 812Q460 826 472.5 832.5Q485 839 507 839Q530 839 540.5 832.5Q551 826 545 809L356 219Q331 142 300.5 89.0Q270 36 230.0 9.5Q190 -17 134 -17Z" transform="translate(395.35200000000003, 72) scale(0.072, -0.072)" /><path d="M475 -19Q392 -19 328.0 6.5Q264 32 222.0 80.0Q180 128 158.0 195.5Q136 263 136 346Q136 414 150.0 484.0Q164 554 190.0 621.5Q216 689 253.5 750.0Q291 811 338.5 861.5Q386 912 443 947Q471 964 484.5 961.5Q498 959 508 944Q521 925 517.0 911.5Q513 898 488 881Q438 848 397.0 802.5Q356 757 324.5 703.0Q293 649 271.5 590.5Q250 532 239.0 470.5Q228 409 228 349Q228 285 244.0 232.5Q260 180 292.0 143.0Q324 106 372.5 86.0Q421 66 485 66Q550 66 610.5 90.0Q671 114 725.0 157.5Q779 201 823.5 259.0Q868 317 900.0 386.0Q932 455 950.0 530.0Q968 605 968 682Q968 749 956.0 796.5Q944 844 920.5 874.5Q897 905 864.0 919.0Q831 933 789 933Q754 933 723.5 921.5Q693 910 666.0 888.5Q639 867 613.0 836.5Q587 806 562 766Q550 750 535.0 747.0Q520 744 503 755Q487 764 487.5 779.5Q488 795 497 811Q531 862 567.0 900.5Q603 939 642.5 964.5Q682 990 724.5 1002.5Q767 1015 812 1015Q873 1015 919.5 993.5Q966 972 997.5 929.5Q1029 887 1045.0 825.0Q1061 763 1061 682Q1061 591 1039.5 503.5Q1018 416 979.0 337.5Q940 259 886.5 194.0Q833 129 767.5 81.5Q702 34 628.0 7.5Q554 -19 475 -19Z" transform="translate(469.872, 72) scale(0.072, -0.072)" /></g></svg>
